assets/components_previews/overlay/dark/dialog.svg

<svg xmlns="http://www.w3.org/2000/svg" width="320" height="232" fill="none" viewBox="0 0 320 232"><g filter="url(#a)"><g clip-path="url(#b)"><rect width="160" height="104" x="80" y="64" fill="#0E0F10" rx="12"/><rect width="72" height="10" x="104" y="80" fill="#2F1C78" rx="5"/><rect width="112" height="10" x="104" y="100" fill="#2F1C78" rx="5"/><g filter="url(#c)"><rect width="140" height="32" x="90" y="126" fill="#5F43D0" rx="8"/><path fill="#0E0F10" d="M135.654 147.14c-2.926 0-5.054-2.184-5.054-5.222 0-3.024 2.1-5.138 5.054-5.138 2.492 0 4.368 1.554 4.662 3.892h-2.1c-.238-1.442-1.26-2.184-2.548-2.184-1.708 0-2.884 1.26-2.884 3.416 0 2.198 1.204 3.528 2.912 3.528 1.218 0 2.24-.728 2.52-2.17h2.128c-.364 2.352-2.226 3.878-4.69 3.878m9.052 0c-2.352 0-3.948-1.512-3.948-3.738 0-2.212 1.582-3.682 3.948-3.682 2.38 0 3.948 1.47 3.948 3.682 0 2.226-1.596 3.738-3.948 3.738m0-1.652c.98 0 1.764-.784 1.764-2.1 0-1.288-.77-2.016-1.764-2.016s-1.764.742-1.764 2.016c0 1.316.784 2.1 1.764 2.1m4.886 1.512v-7.14h2.058v1.302c.49-.882 1.358-1.442 2.562-1.442 1.582 0 2.45.952 2.45 2.45V147h-2.1v-4.424c0-.784-.406-1.176-1.176-1.176-.994 0-1.694.714-1.694 1.764V147zm11.566.154c-1.834 0-2.702-.868-2.702-2.688v-3.01h-1.33v-1.596h1.33v-1.596l2.1-.784v2.38h1.848v1.596h-1.848v3.08c0 .644.35.952 1.092.952.28 0 .518-.056.756-.14v1.596c-.252.14-.7.21-1.246.21m2.191-8.246v-2.268h2.24v2.268zm.07 8.092v-7.14h2.1V147zm3.599 0v-7.14h2.058v1.302c.49-.882 1.358-1.442 2.562-1.442 1.582 0 2.45.952 2.45 2.45V147h-2.1v-4.424c0-.784-.406-1.176-1.176-1.176-.994 0-1.694.714-1.694 1.764V147zm10.57.14c-1.526 0-2.394-1.092-2.394-2.45v-4.83h2.1v4.424c0 .784.406 1.176 1.12 1.176.938 0 1.638-.714 1.638-1.764v-3.836h2.1V147h-2.058v-1.302c-.49.882-1.344 1.442-2.506 1.442m9.393 0c-2.38 0-3.92-1.512-3.92-3.71 0-2.212 1.554-3.71 3.85-3.71 2.212 0 3.626 1.428 3.626 3.57 0 .308-.028.546-.056.77h-5.292c.14 1.064.742 1.568 1.778 1.568.672 0 1.162-.21 1.414-.714h1.974c-.476 1.386-1.596 2.226-3.374 2.226m-.098-5.908c-.882 0-1.47.476-1.666 1.442h3.192c-.084-.98-.644-1.442-1.526-1.442"/></g></g></g><defs><filter id="a" width="200" height="144" x="60" y="56" color-interpolation-filters="sRGB" filterUnits="userSpaceOnUse"><feFlood flood-opacity="0" result="BackgroundImageFix"/><feColorMatrix in="SourceAlpha" result="hardAlpha" values="0 0 0 0 0 0 0 0 0 0 0 0 0 0 0 0 0 0 127 0"/><feOffset dy="12"/><feGaussianBlur stdDeviation="10"/><feComposite in2="hardAlpha" operator="out"/><feColorMatrix values="0 0 0 0 0 0 0 0 0 0 0 0 0 0 0 0 0 0 0.03 0"/><feBlend in2="BackgroundImageFix" result="effect1_dropShadow_10186_24816"/><feColorMatrix in="SourceAlpha" result="hardAlpha" values="0 0 0 0 0 0 0 0 0 0 0 0 0 0 0 0 0 0 127 0"/><feOffset dy="2"/><feGaussianBlur stdDeviation="3"/><feComposite in2="hardAlpha" operator="out"/><feColorMatrix values="0 0 0 0 0 0 0 0 0 0 0 0 0 0 0 0 0 0 0.05 0"/><feBlend in2="effect1_dropShadow_10186_24816" result="effect2_dropShadow_10186_24816"/><feBlend in="SourceGraphic" in2="effect2_dropShadow_10186_24816" result="shape"/></filter><filter id="c" width="180" height="72" x="70" y="118" color-interpolation-filters="sRGB" filterUnits="userSpaceOnUse"><feFlood flood-opacity="0" result="BackgroundImageFix"/><feColorMatrix in="SourceAlpha" result="hardAlpha" values="0 0 0 0 0 0 0 0 0 0 0 0 0 0 0 0 0 0 127 0"/><feOffset dy="12"/><feGaussianBlur stdDeviation="10"/><feComposite in2="hardAlpha" operator="out"/><feColorMatrix values="0 0 0 0 0 0 0 0 0 0 0 0 0 0 0 0 0 0 0.03 0"/><feBlend in2="BackgroundImageFix" result="effect1_dropShadow_10186_24816"/><feColorMatrix in="SourceAlpha" result="hardAlpha" values="0 0 0 0 0 0 0 0 0 0 0 0 0 0 0 0 0 0 127 0"/><feOffset dy="2"/><feGaussianBlur stdDeviation="3"/><feComposite in2="hardAlpha" operator="out"/><feColorMatrix values="0 0 0 0 0 0 0 0 0 0 0 0 0 0 0 0 0 0 0.05 0"/><feBlend in2="effect1_dropShadow_10186_24816" result="effect2_dropShadow_10186_24816"/><feBlend in="SourceGraphic" in2="effect2_dropShadow_10186_24816" result="shape"/></filter><clipPath id="b"><rect width="160" height="104" x="80" y="64" fill="#fff" rx="12"/></clipPath></defs></svg>

<svg width="320" height="232" viewBox="0 0 320 232" fill="none" xmlns="http://www.w3.org/2000/svg">
<g filter="url(#filter0_dd_10186_24816)">
<g clip-path="url(#clip0_10186_24816)">
<rect x="80" y="64" width="160" height="104" rx="12" fill="#0E0F10"/>
<rect x="104" y="80" width="72" height="10" rx="5" fill="#2F1C78"/>
<rect x="104" y="100" width="112" height="10" rx="5" fill="#2F1C78"/>
<g filter="url(#filter1_dd_10186_24816)">
<rect x="90" y="126" width="140" height="32" rx="8" fill="#5F43D0"/>
<path d="M135.654 147.14C132.728 147.14 130.6 144.956 130.6 141.918C130.6 138.894 132.7 136.78 135.654 136.78C138.146 136.78 140.022 138.334 140.316 140.672H138.216C137.978 139.23 136.956 138.488 135.668 138.488C133.96 138.488 132.784 139.748 132.784 141.904C132.784 144.102 133.988 145.432 135.696 145.432C136.914 145.432 137.936 144.704 138.216 143.262H140.344C139.98 145.614 138.118 147.14 135.654 147.14ZM144.706 147.14C142.354 147.14 140.758 145.628 140.758 143.402C140.758 141.19 142.34 139.72 144.706 139.72C147.086 139.72 148.654 141.19 148.654 143.402C148.654 145.628 147.058 147.14 144.706 147.14ZM144.706 145.488C145.686 145.488 146.47 144.704 146.47 143.388C146.47 142.1 145.7 141.372 144.706 141.372C143.712 141.372 142.942 142.114 142.942 143.388C142.942 144.704 143.726 145.488 144.706 145.488ZM149.592 147V139.86H151.65V141.162C152.14 140.28 153.008 139.72 154.212 139.72C155.794 139.72 156.662 140.672 156.662 142.17V147H154.562V142.576C154.562 141.792 154.156 141.4 153.386 141.4C152.392 141.4 151.692 142.114 151.692 143.164V147H149.592ZM161.158 147.154C159.324 147.154 158.456 146.286 158.456 144.466V141.456H157.126V139.86H158.456V138.264L160.556 137.48V139.86H162.404V141.456H160.556V144.536C160.556 145.18 160.906 145.488 161.648 145.488C161.928 145.488 162.166 145.432 162.404 145.348V146.944C162.152 147.084 161.704 147.154 161.158 147.154ZM163.349 138.908V136.64H165.589V138.908H163.349ZM163.419 147V139.86H165.519V147H163.419ZM167.018 147V139.86H169.076V141.162C169.566 140.28 170.434 139.72 171.638 139.72C173.22 139.72 174.088 140.672 174.088 142.17V147H171.988V142.576C171.988 141.792 171.582 141.4 170.812 141.4C169.818 141.4 169.118 142.114 169.118 143.164V147H167.018ZM177.588 147.14C176.062 147.14 175.194 146.048 175.194 144.69V139.86H177.294V144.284C177.294 145.068 177.7 145.46 178.414 145.46C179.352 145.46 180.052 144.746 180.052 143.696V139.86H182.152V147H180.094V145.698C179.604 146.58 178.75 147.14 177.588 147.14ZM186.981 147.14C184.601 147.14 183.061 145.628 183.061 143.43C183.061 141.218 184.615 139.72 186.911 139.72C189.123 139.72 190.537 141.148 190.537 143.29C190.537 143.598 190.509 143.836 190.481 144.06H185.189C185.329 145.124 185.931 145.628 186.967 145.628C187.639 145.628 188.129 145.418 188.381 144.914H190.355C189.879 146.3 188.759 147.14 186.981 147.14ZM186.883 141.232C186.001 141.232 185.413 141.708 185.217 142.674H188.409C188.325 141.694 187.765 141.232 186.883 141.232Z" fill="#0E0F10"/>
</g>
</g>
</g>
<defs>
<filter id="filter0_dd_10186_24816" x="60" y="56" width="200" height="144" filterUnits="userSpaceOnUse" color-interpolation-filters="sRGB">
<feFlood flood-opacity="0" result="BackgroundImageFix"/>
<feColorMatrix in="SourceAlpha" type="matrix" values="0 0 0 0 0 0 0 0 0 0 0 0 0 0 0 0 0 0 127 0" result="hardAlpha"/>
<feOffset dy="12"/>
<feGaussianBlur stdDeviation="10"/>
<feComposite in2="hardAlpha" operator="out"/>
<feColorMatrix type="matrix" values="0 0 0 0 0 0 0 0 0 0 0 0 0 0 0 0 0 0 0.03 0"/>
<feBlend mode="normal" in2="BackgroundImageFix" result="effect1_dropShadow_10186_24816"/>
<feColorMatrix in="SourceAlpha" type="matrix" values="0 0 0 0 0 0 0 0 0 0 0 0 0 0 0 0 0 0 127 0" result="hardAlpha"/>
<feOffset dy="2"/>
<feGaussianBlur stdDeviation="3"/>
<feComposite in2="hardAlpha" operator="out"/>
<feColorMatrix type="matrix" values="0 0 0 0 0 0 0 0 0 0 0 0 0 0 0 0 0 0 0.05 0"/>
<feBlend mode="normal" in2="effect1_dropShadow_10186_24816" result="effect2_dropShadow_10186_24816"/>
<feBlend mode="normal" in="SourceGraphic" in2="effect2_dropShadow_10186_24816" result="shape"/>
</filter>
<filter id="filter1_dd_10186_24816" x="70" y="118" width="180" height="72" filterUnits="userSpaceOnUse" color-interpolation-filters="sRGB">
<feFlood flood-opacity="0" result="BackgroundImageFix"/>
<feColorMatrix in="SourceAlpha" type="matrix" values="0 0 0 0 0 0 0 0 0 0 0 0 0 0 0 0 0 0 127 0" result="hardAlpha"/>
<feOffset dy="12"/>
<feGaussianBlur stdDeviation="10"/>
<feComposite in2="hardAlpha" operator="out"/>
<feColorMatrix type="matrix" values="0 0 0 0 0 0 0 0 0 0 0 0 0 0 0 0 0 0 0.03 0"/>
<feBlend mode="normal" in2="BackgroundImageFix" result="effect1_dropShadow_10186_24816"/>
<feColorMatrix in="SourceAlpha" type="matrix" values="0 0 0 0 0 0 0 0 0 0 0 0 0 0 0 0 0 0 127 0" result="hardAlpha"/>
<feOffset dy="2"/>
<feGaussianBlur stdDeviation="3"/>
<feComposite in2="hardAlpha" operator="out"/>
<feColorMatrix type="matrix" values="0 0 0 0 0 0 0 0 0 0 0 0 0 0 0 0 0 0 0.05 0"/>
<feBlend mode="normal" in2="effect1_dropShadow_10186_24816" result="effect2_dropShadow_10186_24816"/>
<feBlend mode="normal" in="SourceGraphic" in2="effect2_dropShadow_10186_24816" result="shape"/>
</filter>
<clipPath id="clip0_10186_24816">
<rect x="80" y="64" width="160" height="104" rx="12" fill="white"/>
</clipPath>
</defs>
</svg>
